src/css/fonts/SVGs/iota_icons/shimmer.svg

<svg width="37" height="48" viewBox="0 0 37 48" fill="none" xmlns="http://www.w3.org/2000/svg">
<path d="M35.6476 6.47233C27.6476 -1.99566 14.4998 -2.17819 6.28147 6.06482C-1.9369 14.3078 -2.11391 27.8548 5.88611 36.3227L11.1455 31.0478C5.98619 25.5536 6.1105 16.7899 11.4309 11.4535C16.7514 6.1171 25.257 6.22499 30.4485 11.687L35.6476 6.47233Z" fill="black"/>
<path d="M0.710322 41.5279C8.71035 49.9957 21.8579 50.1781 30.0762 41.9351C38.2946 33.6921 38.4716 20.1453 30.4717 11.6773L25.2128 16.9519C30.3721 22.4462 30.2478 31.2099 24.9274 36.5463C19.6069 41.8827 11.1013 41.7748 5.90985 36.3127L0.710322 41.5279Z" fill="black"/>
</svg>

<svg xmlns="http://www.w3.org/2000/svg" viewBox="0 0 37 48">
  <path d="M35.648 6.472c-8-8.468-21.148-8.65-29.367-.407-8.218 8.243-8.395 21.79-.395 30.258l5.26-5.275c-5.16-5.494-5.036-14.258.285-19.594 5.32-5.337 13.826-5.229 19.018.233l5.199-5.215ZM.71 41.528c8 8.468 21.148 8.65 29.366.407 8.219-8.243 8.396-21.79.396-30.258l-5.26 5.275c5.16 5.494 5.036 14.258-.285 19.594-5.32 5.337-13.826 5.229-19.017-.233l-5.2 5.215Z"/>
</svg>
